icons/solid/emoji-sad.svg

<svg width="24" height="24" viewBox="0 0 24 24" fill="none" xmlns="http://www.w3.org/2000/svg">
<path fill-rule="evenodd" clip-rule="evenodd" d="M2 12C2 6.47715 6.47715 2 12 2C17.5228 2 22 6.47715 22 12C22 17.5228 17.5228 22 12 22C6.47715 22 2 17.5228 2 12ZM9 11C9.55229 11 10 10.5523 10 10C10 9.44772 9.55229 9 9 9C8.44772 9 8 9.44772 8 10C8 10.5523 8.44772 11 9 11ZM9.7568 15.6536C9.3958 16.0716 8.76433 16.1178 8.34636 15.7568C7.92839 15.3958 7.8822 14.7643 8.2432 14.3463C9.05258 13.4092 10.2838 12.7536 12 12.7536C13.7162 12.7536 14.9474 13.4092 15.7568 14.3463C16.1178 14.7643 16.0716 15.3958 15.6536 15.7568C15.2356 16.1178 14.6042 16.0716 14.2432 15.6536C13.8244 15.1688 13.1516 14.7536 12 14.7536C10.8484 14.7536 10.1756 15.1688 9.7568 15.6536ZM16 10C16 10.5523 15.5523 11 15 11C14.4477 11 14 10.5523 14 10C14 9.44772 14.4477 9 15 9C15.5523 9 16 9.44772 16 10Z" fill="currentColor"/>
</svg>

<svg width="24" height="24" fill="none" xmlns="http://www.w3.org/2000/svg"><path fill-rule="evenodd" clip-rule="evenodd" d="M2 12C2 6.477 6.477 2 12 2s10 4.477 10 10-4.477 10-10 10S2 17.523 2 12zm7-1a1 1 0 100-2 1 1 0 000 2zm.757 4.654a1 1 0 11-1.514-1.308c.81-.937 2.04-1.592 3.757-1.592 1.716 0 2.947.655 3.757 1.592a1 1 0 01-1.514 1.308c-.419-.485-1.091-.9-2.243-.9s-1.824.415-2.243.9zM16 10a1 1 0 11-2 0 1 1 0 012 0z" fill="currentColor"/></svg>
